X:1
T:Non si vedra gia mai
T:Non si vedra gia mai
T:Girolamo Scotto
T:Source : Madrigali a tre voci---Venetia---G.Scotto---1541. Editor : André Vierendeels (15/07/16).
T:Notes : Original clefs : C1, C4, F4 Editorial accidentals above the staff Oiriginal note values have been halved "Primi toni"
T:©
T:©
T:©
T:©
T:©
C:Girolamo Scotto
Z:©
%%score [ 1 2 3 ]
L:1/8
Q:1/4=108
M:2/2
K:F
V:1 treble nm="Alto" snm="A"
V:2 treble-8 nm="Tenor" snm="T"
V:3 bass nm="Bass" snm="B"
V:1
 D4 D2 D2 | E4 F4 | G3 F E2 D2 | C2 F4 ED | EFGE F4- | F4 E2 G2 | A2 A2 D2 E2 | F4 E4- | E4 z2 D2 | %9
w: Non si ve-|dra gia|mai _ _ stan-|cha me _ _|_ _ _ _ sa-|* tia, stan-|cha ne sa- *|* tia,|_ que-|
 D2 D2 G2 G2 | F4 E4 | z2 D2 D2 D2 | F6 G2 | F4 E4 | D8- | D4 z4 | z8 | z4 D4 | D2 D2 A4 | %19
w: sta mia pen- n'A-|mo- re|di- ren- der-|ti si-|gno- *|re,|_||del|tuo co- tan-|
 B4 A2 A2 | G2 F2 E4 | D2 F2 _E2 D2- | DCCB,/C/ D2 F2- | F2 E2 F2 D2 | D2 D2 E2 F2 | G3 F E2 G2- | %26
w: to'ho- nor al-|cu- na gra-|tia, al- cu- na|_ _ _ _ _ _ gra-|* ti- a, a|cui pen- san- do|vo- len- tier si|
 G2 F2 G4 | z4 z2 F2 | F2 F2 G2 A2 | B3 A G2 D2 | E2 F2 E4 | z2 G2 E2 E2 | F2 D2 G4 | A4 B2 A2- | %34
w: spa- ci- a,|per|la me- mo- ria'il|co- * re, il|co- * re,|et ve- de'il|tuo va- lo-||
 A2 G2 A4 | z2 A2 A2 A2 | G2 E2 F2 E2 | G3 A B2 A2 | B2 A4 G2 | A4 z2 F2 | F2 E2 F2 A2 | %41
w: * * re,|ond' ei pren-|de vi- gor et|te rin- gra- *|* * ti-|a, ond'|ei pren- de vi-|
"^b" A2 A2 B2 A2- | AG G4 F2 | G8- | G8- | G8 |] %46
w: gor et rin- gra-|* * * ti-|a.|_||
V:2
 z8 | z8 | G4 G2 G2 | A4 B4 | c4 d3 c | B2 A2 G2 c2- | c2 BA B2 c2- | cB/A/ B2 c4 | c2 A2 A2 A2 | %9
w: ||Non si ve-|dra gia|mai _ _|_ stan- * cha|_ _ _ ne sa-||tia, que- sta mia|
 B2 B4 AG | A2 B2 cBAG | F4 G2 B2 | A2 A2 B2 GA | Bc d4 c2 | B3 A G2 B2 | A2 d4 c2 | B2 A3 G G2- | %17
w: pen- n'A- * *|* * mo- * * *|* re di-|ren- der- ti si- *|* * gno- *||re, si- gno-||
 G2 F2 G2 B2 | B2 B2 A2 c2 | d2 d2 c2 f2 | e2 d4 c2 | d3 c B2 A2- | A2 G2 A4 | G4 F4- | F4 z2 B2 | %25
w: * * re, del|tuo co- tan- to'ho-|nor al- cu- na|gra- * *|||ti- a,|_ a|
 B2 B2 c2 B2 | A2 A2 G2 G2 | B4 A4 | z2 d2 d2 d2 | d4 B4 | A2 d4 c2 | d4 z2 c2 | A2 B2 G2 c2- | %33
w: cui pen- san- do|vo- len- tier si|spa- cia,|per la me-|mo- ria'il|co- * *|re, et|ve- de'il tuo va-|
 c2 d3 cBA | B4 A2 d2 | d2 d2 c2 A2 | c6 c2 | B2 e3 d d2- | d2 c2 d4 | z2 c2 A2 A2 | B2 G2 c4 | %41
w: * lo- * * *|* re, _|ond' ei pren- de|vi- gor|et te rin- gra-|* ti- a,|ond' ei pren-|de vi- gor|
 z2 d2 d2 d2 | c2 G2 A4 | G8- | G8- | G8 |] %46
w: et rin- gra-|* * ti-|a.|_||
V:3
 z8 | z8 | z8 | z8 | z4 D,4 | D,2 D,2 E,2 E,2 | F,2 F,2 G,2 E,2 | D,4 C,2 A,,2 | A,,2 A,,2 D,3 C, | %9
w: ||||Non|si ve- dra gia|mai stan- cha me|sa- tia, que-|sta mia pen- *|
"^b" B,,2 B,,2 E,4 | D,4 C,3 B,, | A,,2 B,,2 G,,4 | F,,4 z4 | z8 | G,,4 G,,2 G,,2 |"^b" D,4 E,4 | %16
w: * n'A- mo-|re, A- *|* mo- *|re,||di- ren- de|ti si-|
 D,4 C,2 B,,2 | A,,4 G,,2 G,,2 | G,2 G,2 F,2 F,2 | B,,C,D,E, F,2 D,2 | z2 D,2 A,4 | %21
w: gno- * *|* re, del|tuo co- tan- to'ho-|nor _ _ _ _ _|al- cu-|
 B,3 A, G,2 F,2 | _E,4 D,4 | z4 z2 B,,2 | B,,2 B,,2 C,2 D,2 |"^b" E,3 D, C,2 G,,2 | D,4 G,,2 G,2 | %27
w: na _ _ gra-|ti- a,|a|cui pen- san- do|vo- len- tier si|spa- cia, per|
 G,2 G,2 F,2 D,2 | A,2 B,2 G,2 ^F,2 | G,2 D,2 G,4 | z2 D,2 A,,2 A,,2 | B,,2 G,,2 C,4 | %32
w: le me- mo- ra'il|co- * * *|* * re,|et ve- de'il|tuo va- lo-|
 D,2 G,2 E,2 E,2 | F,2 D,2 G,2 D,2 | G,4 D,4- | D,4 F,4 | z2 A,2 A,2 A,2 | G,2 C,2 G,2 F,2 | %38
w: re, et ve- de'il|tuo va- lo- *||* re,|ond' ei pren-|de vi- gor et|
"^#" G,2 A,2 B,4 | A,3 G, F,E,D,C, | B,,2 C,2 F,,2 F,2 | D,2 D,2 G,2 D,2 | _E,2 E,2 D,4 | %43
w: rin- gra- ti-||* * a, ond'|ei pren- de vi-|gor et rin-|
 G,,2 C,4 B,,2 | C,8 | G,,8 |] %46
w: gra- * *|ti-|a.|

